icons/production/linkedin.svg

<?xml version="1.0" encoding="UTF-8" standalone="no"?>
<svg width="24px" height="24px" viewBox="0 0 24 24" version="1.1" xmlns="http://www.w3.org/2000/svg">
<!--Generator: Sketch 3.8.3 (29802) - http://www.bohemiancoding.com/sketch-->
    <title>
        linkedin
    </title>
    <desc>
        Created with Sketch.
    </desc>
    <g id="Page-1" stroke="none" stroke-width="1" fill="none" fill-rule="evenodd">
        <path d="M18.9994,18.9981 L15.9994,18.9981 L15.9994,13.6981 C15.9994,12.8701 15.3274,12.1981 14.4994,12.1981 C13.6714,12.1981 12.9994,12.8701 12.9994,13.6981 L12.9994,18.9981 L9.9994,18.9981 L9.9994,9.99807 L12.9994,9.99807 L12.9994,11.1981 C13.5174,10.3601 14.5854,9.79807 15.4994,9.79807 C17.4324,9.79807 18.9994,11.3651 18.9994,13.2981 L18.9994,18.9981 Z M6.4994,8.31007 C5.4984,8.31007 4.6864,7.50007 4.6864,6.49807 C4.6864,5.49607 5.4984,4.68507 6.4994,4.68507 C7.5004,4.68507 8.3114,5.49607 8.3114,6.49807 C8.3114,7.50007 7.5004,8.31007 6.4994,8.31007 L6.4994,8.31007 Z M7.9994,18.9981 L4.9994,18.9981 L4.9994,9.99807 L7.9994,9.99807 L7.9994,18.9981 Z M19.9994,1.99807 L3.9994,1.99807 C2.8944,1.99807 2.00917,2.89307 2.00917,3.99807 L1.9994,19.9981 C1.9994,21.1016 2.8944,21.9981 3.9994,21.9981 L19.9994,21.9981 C21.1029,21.9981 21.9994,21.1016 21.9994,19.9981 L21.9994,3.99807 C21.9994,2.89307 21.1029,1.99807 19.9994,1.99807 L19.9994,1.99807 Z" id="linkedin" fill="#000"/>
    </g>
</svg>

<svg xmlns="http://www.w3.org/2000/svg" viewBox="0 0 24 24">
    <path fill-rule="evenodd" d="M19 18.998h-3v-5.3a1.5 1.5 0 0 0-3 0v5.3h-3v-9h3v1.2c.517-.838 1.585-1.4 2.5-1.4a3.5 3.5 0 0 1 3.5 3.5v5.7zM6.5 8.31a1.812 1.812 0 1 1-.003-3.624A1.812 1.812 0 0 1 6.5 8.31zM8 18.998H5v-9h3v9zm12-17H4a1.99 1.99 0 0 0-1.99 2l-.01 16a2 2 0 0 0 2 2h16c1.103 0 2-.896 2-2v-16a2 2 0 0 0-2-2z"/>
</svg>
